packages/icons/src/tasBGSetup.svg

<svg viewBox="0 0 33 33" fill="none" xmlns="http://www.w3.org/2000/svg">
<rect x="25.4062" y="20.7273" width="4.00099" height="4.00692" rx="0.5" transform="rotate(-180 25.4062 20.7273)" stroke="#0278D5"/>
<rect x="18.4121" y="20.7273" width="4.00099" height="4.00692" rx="0.5" transform="rotate(-180 18.4121 20.7273)" stroke="#0278D5"/>
<rect x="25.4062" y="13.7378" width="4.00099" height="4.00692" rx="0.5" transform="rotate(-180 25.4062 13.7378)" stroke="#0278D5"/>
<rect x="8.40625" y="4.72729" width="4.00099" height="4.00692" rx="0.5" stroke="#299B2C"/>
<rect x="15.4004" y="4.72729" width="4.00099" height="4.00692" rx="0.5" stroke="#299B2C"/>
<rect x="8.40625" y="11.7168" width="4.00099" height="4.00692" rx="0.5" stroke="#299B2C"/>
<path d="M28.9791 31.4291H25.5695C25.5029 31.4296 25.4371 31.4149 25.3771 31.3862C25.317 31.3575 25.2643 31.3154 25.2229 31.2632L23.0579 28.5542C23.0154 28.5009 22.9857 28.4386 22.9712 28.372C22.9566 28.3055 22.9576 28.2365 22.9741 28.1703L23.7976 24.8538C23.8135 24.7916 23.8425 24.7335 23.8826 24.6833C23.9228 24.6332 23.9732 24.5922 24.0305 24.5632L27.0824 23.0335C27.1438 23.0031 27.2114 22.9873 27.2799 22.9873C27.3484 22.9873 27.416 23.0031 27.4774 23.0335L30.5685 24.565C30.6271 24.5935 30.6786 24.6346 30.7193 24.6856C30.7599 24.7365 30.7886 24.7959 30.8032 24.8594L31.5895 28.1759C31.6039 28.2405 31.6037 28.3075 31.5889 28.372C31.574 28.4364 31.545 28.4968 31.5038 28.5486L29.3238 31.2651C29.2823 31.3165 29.2298 31.3579 29.1701 31.3863C29.1105 31.4146 29.0452 31.4293 28.9791 31.4291ZM25.5695 30.9726H28.9717L31.1423 28.2728L30.3598 24.9694L27.2818 23.4453L24.241 24.9694L23.4194 28.2747L25.5695 30.9726Z" fill="#238FCF"/>
<path d="M31.1988 23.954L31.5864 23.6354L27.5078 21.6157V22.1262L31.1988 23.954Z" fill="#1BBFD3"/>
<path d="M22.2533 28.6997L21.7559 28.8096L24.601 32.3795L24.8245 31.9268L22.2533 28.6997Z" fill="#79BF43"/>
<path d="M27.0499 22.1282V21.6177L23.0254 23.6355L23.4018 23.9597L27.0499 22.1282Z" fill="#1BBFD3"/>
<path d="M23.13 24.3284L22.7425 23.9949L21.6562 28.3622L22.1556 28.2523L23.13 24.3284Z" fill="#1D4489"/>
<path d="M32.4082 28.2541L32.9056 28.3641L31.8716 23.9949L31.4766 24.3191L32.4082 28.2541Z" fill="#1D4489"/>
<path d="M32.3062 28.6997L29.707 31.9324L29.9288 32.3851L32.8037 28.8096L32.3062 28.6997Z" fill="#79BF43"/>
<path d="M25.2353 32.1243L25.0117 32.5826H29.5151L29.2915 32.1243H25.2353Z" fill="#1BBFD3"/>
</svg>

<svg viewBox="0 0 33 33" fill="none" xmlns="http://www.w3.org/2000/svg"><rect x="25.406" y="20.727" width="4.001" height="4.007" rx=".5" transform="rotate(-180 25.406 20.727)" stroke="#0278D5"/><rect x="18.412" y="20.727" width="4.001" height="4.007" rx=".5" transform="rotate(-180 18.412 20.727)" stroke="#0278D5"/><rect x="25.406" y="13.738" width="4.001" height="4.007" rx=".5" transform="rotate(-180 25.406 13.738)" stroke="#0278D5"/><rect x="8.406" y="4.727" width="4.001" height="4.007" rx=".5" stroke="#299B2C"/><rect x="15.4" y="4.727" width="4.001" height="4.007" rx=".5" stroke="#299B2C"/><rect x="8.406" y="11.717" width="4.001" height="4.007" rx=".5" stroke="#299B2C"/><path d="M28.98 31.43h-3.41a.438.438 0 0 1-.347-.167l-2.165-2.709a.444.444 0 0 1-.084-.384l.824-3.316a.453.453 0 0 1 .233-.29l3.051-1.53a.445.445 0 0 1 .395 0l3.091 1.531a.438.438 0 0 1 .235.294l.787 3.317a.444.444 0 0 1-.086.373l-2.18 2.716a.44.44 0 0 1-.345.164Zm-3.41-.457h3.402l2.17-2.7-.782-3.304-3.078-1.524-3.041 1.524-.822 3.306 2.15 2.698Z" fill="#238FCF"/><path d="m31.199 23.954.387-.319-4.078-2.02v.511l3.69 1.828Z" fill="#1BBFD3"/><path d="m22.253 28.7-.497.11 2.845 3.57.224-.453-2.572-3.227Z" fill="#79BF43"/><path d="M27.05 22.128v-.51l-4.025 2.018.377.324 3.648-1.832Z" fill="#1BBFD3"/><path d="m23.13 24.328-.387-.333-1.087 4.367.5-.11.974-3.924ZM32.408 28.254l.498.11-1.034-4.37-.395.325.931 3.935Z" fill="#1D4489"/><path d="m32.306 28.7-2.599 3.232.222.453 2.875-3.575-.498-.11Z" fill="#79BF43"/><path d="m25.235 32.124-.223.459h4.503l-.224-.459h-4.056Z" fill="#1BBFD3"/></svg>
